static/assets/images/icons/link.svg

<svg width="256" height="256" viewBox="0 0 256 256" fill="none" xmlns="http://www.w3.org/2000/svg">
<path d="M207.998 118C205.346 118 202.803 119.054 200.927 120.929C199.052 122.804 197.998 125.348 197.998 128V188C197.998 190.652 196.945 193.196 195.07 195.071C193.194 196.946 190.651 198 187.999 198H67.9997C65.3476 198 62.8041 196.946 60.9287 195.071C59.0534 193.196 57.9998 190.652 57.9998 188V68C57.9998 65.3478 59.0534 62.8043 60.9287 60.9289C62.8041 59.0536 65.3476 58 67.9997 58H127.999C130.651 58 133.195 56.9464 135.07 55.0711C136.945 53.1957 137.999 50.6522 137.999 48C137.999 45.3478 136.945 42.8043 135.07 40.9289C133.195 39.0536 130.651 38 127.999 38H67.9997C60.0433 38 52.4127 41.1607 46.7867 46.7868C41.1607 52.4129 38 60.0435 38 68V188C38 195.956 41.1607 203.587 46.7867 209.213C52.4127 214.839 60.0433 218 67.9997 218H187.999C195.955 218 203.585 214.839 209.212 209.213C214.838 203.587 217.998 195.956 217.998 188V128C217.998 125.348 216.945 122.804 215.069 120.929C213.194 119.054 210.65 118 207.998 118Z" fill="black"/>
<path d="M168 58H183.8L120.901 120.8C119.964 121.73 119.22 122.836 118.712 124.054C118.204 125.273 117.943 126.58 117.943 127.9C117.943 129.22 118.204 130.527 118.712 131.746C119.22 132.964 119.964 134.07 120.901 135C121.831 135.937 122.937 136.681 124.155 137.189C125.374 137.697 126.681 137.958 128.001 137.958C129.321 137.958 130.628 137.697 131.847 137.189C133.065 136.681 134.171 135.937 135.101 135L198 72.2V88C198 90.6522 199.054 93.1957 200.929 95.0711C202.804 96.9464 205.348 98 208 98C210.652 98 213.196 96.9464 215.071 95.0711C216.946 93.1957 218 90.6522 218 88V48C218 45.3478 216.946 42.8043 215.071 40.9289C213.196 39.0536 210.652 38 208 38H168C165.348 38 162.805 39.0536 160.93 40.9289C159.054 42.8043 158.001 45.3478 158.001 48C158.001 50.6522 159.054 53.1957 160.93 55.0711C162.805 56.9464 165.348 58 168 58Z" fill="black"/>
</svg>

<svg xmlns="http://www.w3.org/2000/svg" fill="none" viewBox="0 0 256 256"><path fill="#000" d="M207.998 118a10.003 10.003 0 0 0-10 10v60a10 10 0 0 1-9.999 10h-120a10 10 0 0 1-10-10V68a10 10 0 0 1 10-10h60a10 10 0 1 0 0-20h-60A30 30 0 0 0 38 68v120a30 30 0 0 0 30 30h119.999a30.003 30.003 0 0 0 29.999-30v-60a9.997 9.997 0 0 0-10-10"/><path fill="#000" d="M168 58h15.8l-62.899 62.8a9.997 9.997 0 0 0 0 14.2 9.997 9.997 0 0 0 14.2 0L198 72.2V88a10.002 10.002 0 0 0 17.071 7.071A10 10 0 0 0 218 88V48a10 10 0 0 0-10-10h-40a9.997 9.997 0 0 0-9.999 10A9.997 9.997 0 0 0 168 58"/></svg>
